overrides/.icons/brands/asus-tuf.svg

<?xml version="1.0" encoding="UTF-8" standalone="no"?>
<svg
   width="450"
   height="450"
   viewBox="0 0 450 450"
   version="1.1"
   id="svg1"
   xmlns="http://www.w3.org/2000/svg">
  <path
     fill="currentColor"
     d="m 236.35155,168.15433 90.81231,-52.41289 v 229.90839 l -90.81231,52.46114 z M 122.83615,345.64841 V 115.74144 l 90.81231,52.41431 v 229.95522 z m 227.03078,-143.61116 90.81232,-52.41432 v 77.77082 l -90.81232,52.46114 z M 9.320755,227.39375 V 51.889027 L 100.13307,104.30334 V 279.85348 Z M 349.86693,104.30476 440.67925,51.889027 v 77.766553 l -90.81232,52.46398 z"/>
</svg>

<?xml version="1.0" encoding="UTF-8"?>
<svg version="1.1" viewBox="0 0 450 450" xmlns="http://www.w3.org/2000/svg"><path d="m236.35 168.15 90.812-52.413v229.91l-90.812 52.461zm-113.52 177.49v-229.91l90.812 52.414v229.96zm227.03-143.61 90.812-52.414v77.771l-90.812 52.461zm-340.55 25.356v-175.5l90.812 52.414v175.55zm340.55-123.09 90.812-52.416v77.767l-90.812 52.464z" fill="currentColor"/></svg>
